X: 33226
T: Pudding, The
R: polka
M: 2/4
K: Gmajor
|:G2 BG|Ac c2|BG AG|E/F/G FA|
G2 BG|Ac c2|BG AG|ED D2:|
|:DE ED|FA A2|GD BG|Ac c2|
DE ED|FA A2|BG AG|ED D2:|

